icon_installer/data/icons/scalable/actions/show-detach-audio-symbolic.svg

<?xml version="1.0" encoding="UTF-8"?>
<svg height="16px" viewBox="0 0 16 16" width="16px" xmlns="http://www.w3.org/2000/svg">
    <g fill="#222222">
        <path d="m 1 0 v 1 h 1 v 1 h -1 v 5 h 1 v 1 h -1 v 1 h 14 v -3 h -1 v -3 h 1 v -3 z m 2 1 h 1 v 1 h -1 z m 2 0 h 1 v 1 h -1 z m 2 0 h 1 v 1 h -1 z m 2 0 h 1 v 1 h -1 z m 2 0 h 1 v 1 h -1 z m 2 0 h 1 v 1 h -1 z m -11 2 h 3 v 3 h -3 z m 4 0 h 3 v 3 h -3 z m 4 0 h 3 v 3 h -3 z m -7 4 h 1 v 1 h -1 z m 2 0 h 1 v 1 h -1 z m 2 0 h 1 v 1 h -1 z m 2 0 h 1 v 1 h -1 z m 2 0 h 1 v 1 h -1 z m 2 0 h 1 v 1 h -1 z m 0 0"/>
        <path d="m 1 11 v 5 h 14 v -5 z m 6 1 h 1 v 1 h 2 v 0.5 h 1 v -1 h 1 v 0.5 h 2.5 v 1 h -1.5 v 1 h -1 v -0.5 h -1 v -0.5 h -1 v 1 h -1 v -1 h -1 v 1.5 h -1 v -0.5 h -1 v -1 h -1 v 1 h -1 v -0.5 h -1 v -0.5 h -1.5 v -1 h 1.5 v -0.5 h 1 v -0.5 h 1 v 1.5 h 1 v -0.5 h 1 z m 0 0"/>
    </g>
</svg>

<svg xmlns="http://www.w3.org/2000/svg" width="16" height="16"><path fill="#222" d="M1 0v1h1v1H1v5h1v1H1v1h14V6h-1V3h1V0zm2 1h1v1H3zm2 0h1v1H5zm2 0h1v1H7zm2 0h1v1H9zm2 0h1v1h-1zm2 0h1v1h-1zM2 3h3v3H2zm4 0h3v3H6zm4 0h3v3h-3zM3 7h1v1H3zm2 0h1v1H5zm2 0h1v1H7zm2 0h1v1H9zm2 0h1v1h-1zm2 0h1v1h-1zM1 11v5h14v-5zm6 1h1v1h2v.5h1v-1h1v.5h2.5v1H13v1h-1v-.5h-1V14h-1v1H9v-1H8v1.5H7V15H6v-1H5v1H4v-.5H3V14H1.5v-1H3v-.5h1V12h1v1.5h1V13h1zm0 0"/></svg>
